!!!COM: Fux, Johann Joseph
!!!OMD: Gradus ad Parnassum Exercise
!!!YEC: CC0 1.0 Universal (Public Domain). Mark Gotham and FourScoreAndMore.org waive all rights to this document.
**kern	**kern
*part2	*part1
*staff2	*staff1
*I"2	*I"1
*I'Pno	*I'Pno
!!LO:PB:g=z
*clefGv2	*clefG2
*k[]	*k[]
!!LO:TX:omd:t=
*M2/2	*M2/2
=292	=292
!	!LO:TX:a:t=Fig. 58; Species&colon; 3; Modal final&colon; e; Cantus firmus&colon; Upper
4E/	1e
4F/	.
4G/	.
4E/	.
=293	=293
4A/	1c
4G/	.
4F/	.
4E/	.
=294	=294
4D/	1d
4E/	.
4F/	.
4G/	.
=295	=295
4A/	1c
4E/	.
4A/	.
4G/	.
=296	=296
4F/	1A
4E/	.
4D/	.
4E/	.
!!LO:LB:g=z
=297	=297
4F/	1a
4G/	.
4A/	.
4B\	.
=298	=298
4c\	1g
4d\	.
4e\	.
4d\	.
=299	=299
4c\	1e
4C/	.
4c\	.
4B\	.
=300	=300
4A/	1f
4d\	.
4A/	.
4d\	.
=301	=301
1e	1e
==	==
*-	*-
!!!software: music21 v.9.7.1
!!!software: music21 v.9.7.1
!!!software: MuseScore 3.4.2
!!!RDF**kern: > = above
!!!RDF**kern: < = below
